src/lib/packages/icons/src/assets/filled/heart-slash.svg

<svg width="24" height="24" viewBox="0 0 24 24" fill="none" xmlns="http://www.w3.org/2000/svg">
<path d="M20.7741 7.85799C21.0591 8.97099 21.072 10.217 20.829 11.47C19.659 17.52 11.999 21 11.999 21C11.999 21 10.7421 20.424 9.16006 19.348C9.00506 19.242 8.98201 19.017 9.11501 18.884L20.268 7.73C20.43 7.569 20.7171 7.63599 20.7741 7.85799ZM21.5301 2.46999C21.2371 2.17699 20.762 2.17699 20.469 2.46999L18.3681 4.57101C17.6991 4.21101 16.9031 4.008 15.9781 4.001C12.9981 3.991 11.9981 6.99105 11.9981 6.99105C11.9981 6.99105 10.998 3.991 8.01797 4.001C4.01797 4.021 2.44799 7.75103 3.16799 11.471C3.57599 13.575 4.75896 15.363 6.13796 16.801L2.46804 20.471C2.17504 20.764 2.17504 21.239 2.46804 21.532C2.61404 21.678 2.80607 21.752 2.99807 21.752C3.19007 21.752 3.38198 21.679 3.52798 21.532L21.528 3.53201C21.823 3.23801 21.8231 2.76199 21.5301 2.46999Z" fill="currentColor"/>
</svg>

<svg xmlns="http://www.w3.org/2000/svg" width="24" height="24" fill="none"><path fill="currentColor" d="M20.774 7.858c.285 1.113.298 2.359.055 3.612-1.17 6.05-8.83 9.53-8.83 9.53s-1.257-.576-2.839-1.652a.305.305 0 0 1-.045-.464L20.268 7.73c.162-.161.45-.094.506.128Zm.756-5.388a.75.75 0 0 0-1.061 0l-2.1 2.101c-.67-.36-1.466-.563-2.39-.57-2.98-.01-3.98 2.99-3.98 2.99s-1.001-3-3.981-2.99c-4 .02-5.57 3.75-4.85 7.47.408 2.104 1.591 3.892 2.97 5.33l-3.67 3.67a.75.75 0 0 0 1.06 1.061l18-18a.75.75 0 0 0 .002-1.062Z"/></svg>
